img/copy_icon.svg

<svg width="32" height="32" viewBox="0 0 32 32" fill="none" xmlns="http://www.w3.org/2000/svg">
<path d="M18.6666 6.22217H8.88886C7.91108 6.22217 7.11108 7.02217 7.11108 7.99995V19.5555C7.11108 20.0444 7.51108 20.4444 7.99997 20.4444C8.48886 20.4444 8.88886 20.0444 8.88886 19.5555V8.88883C8.88886 8.39995 9.28886 7.99995 9.77775 7.99995H18.6666C19.1555 7.99995 19.5555 7.59995 19.5555 7.11106C19.5555 6.62217 19.1555 6.22217 18.6666 6.22217ZM19.1911 10.3022L23.4844 14.5955C23.8133 14.9244 24 15.3777 24 15.8488V23.9999C24 24.9777 23.2 25.7777 22.2222 25.7777H12.4355C11.4578 25.7777 10.6666 24.9777 10.6666 23.9999L10.6755 11.5555C10.6755 10.5777 11.4666 9.77772 12.4444 9.77772H17.9289C18.4 9.77772 18.8533 9.96439 19.1911 10.3022ZM18.6666 15.9999H22.6666L17.7778 11.1111V15.1111C17.7778 15.5999 18.1778 15.9999 18.6666 15.9999Z" fill="#A4A8B1"/>
</svg>

<svg width="32" height="32" viewBox="0 0 32 32" fill="none" xmlns="http://www.w3.org/2000/svg"><path d="M18.667 6.222H8.889c-.978 0-1.778.8-1.778 1.778v11.555c0 .49.4.89.889.89s.889-.4.889-.89V8.89c0-.489.4-.889.889-.889h8.889c.488 0 .888-.4.888-.889s-.4-.889-.888-.889zm.524 4.08l4.293 4.293c.33.33.516.783.516 1.254v8.15c0 .979-.8 1.779-1.778 1.779h-9.787c-.977 0-1.768-.8-1.768-1.778l.008-12.444c0-.978.792-1.778 1.77-1.778h5.484c.471 0 .924.186 1.262.524zM18.667 16h4l-4.89-4.889v4c0 .489.4.889.89.889z" fill="#A4A8B1"/></svg>
